svg/set/ISD/M.svg

<?xml version="1.0" encoding="UTF-8" standalone="no"?>
<svg xmlns="http://www.w3.org/2000/svg" xmlns:xlink="http://www.w3.org/1999/xlink" version="1.1" width="600" height="544.59369">
  <linearGradient x1="0" y1="0" x2="1" y2="0" id="linearGradient630" gradientUnits="userSpaceOnUse" gradientTransform="matrix(23.270172,33.233261,33.233261,-23.270172,221.31689,244.63379)" spreadMethod="pad">
    <stop style="stop-color:#bf331c" offset="0"/>
    <stop style="stop-color:#d3641c" offset="0.39999399"/>
    <stop style="stop-color:#f6b91d" offset="0.5"/>
    <stop style="stop-color:#d3641c" offset="0.69999701"/>
    <stop style="stop-color:#bf331c" offset="1"/>
  </linearGradient>
  <linearGradient x1="0" y1="0" x2="1" y2="0" id="linearGradient2997" xlink:href="#linearGradient630" gradientUnits="userSpaceOnUse" gradientTransform="matrix(23.270172,33.233261,33.233261,-23.270172,221.31689,244.63379)" spreadMethod="pad"/>
  <linearGradient x1="0" y1="0" x2="1" y2="0" id="linearGradient3000" xlink:href="#linearGradient630" gradientUnits="userSpaceOnUse" gradientTransform="matrix(316.78804,-452.42035,452.42035,316.78804,141.34727,476.24326)" spreadMethod="pad"/>
  <path d="m 299.97305,544.59368 -41.6981,-114.8161 -242.959784,42.28347 121.772584,-79.82945 -15.53298,-2.76353 0,-167.0238 L 101.9922,157.98444 0,212.0708 79.979199,43.0186 l 112.311211,0 L 193.08,45.56432 299.97305,0 l 106.93389,45.56432 0.80265,-2.54572 112.31121,0 L 600,212.0708 498.0078,157.98444 l -19.57618,64.45983 0,167.0238 -15.51937,2.76353 121.77258,79.82945 -242.9734,-42.28347 -41.73893,114.8161 z" style="fill:#ffffff"/>
  <path d="M 299.97305,528.63868 261.84169,423.66513 40.309516,462.16405 151.54527,389.30471 127.041,384.89394 l 0,-163.30731 -21.80879,-71.52523 -93.320414,49.56668 71.470773,-151.13686 104.864641,0 1.32051,4.46522 110.40533,-47.00735 110.44616,47.00735 1.33412,-4.46522 104.86465,0 71.47077,151.13686 -93.33402,-49.56668 -21.79519,71.52523 0,163.30731 -24.46342,4.41077 111.19491,72.85934 -221.49133,-38.49892 -38.22665,104.97355 z"/>
  <path d="m 206.05364,58.22486 53.86855,23.1293 0,201.7654 -16.90795,-12.34743 -63.16655,-211.00895 -89.345271,0 -53.922997,113.97206 75.513978,-40.05086 26.16511,86.25501 0,155.60209 43.12751,7.65077 -89.345278,58.55158 177.138608,-30.79369 30.7937,84.66224 30.83453,-84.66224 177.08415,30.79369 -89.2772,-58.55158 43.12751,-7.65077 0,-155.60209 26.15149,-86.25501 75.45952,40.05086 -53.86854,-113.97206 -89.33166,0 -63.18016,211.00895 -16.9624,12.34743 0,-201.7654 53.923,-23.1293 -93.96024,-40.03725 -93.91941,40.03725 z" style="fill:url(#linearGradient3000)"/>
</svg>

<?xml version="1.0" encoding="UTF-8" standalone="no"?>
<svg
   version="1.1"
   width="600"
   height="544.59369"
   id="svg7"
   xmlns:xlink="http://www.w3.org/1999/xlink"
   xmlns="http://www.w3.org/2000/svg"
   xmlns:svg="http://www.w3.org/2000/svg">
  <defs
     id="defs7" />
  <linearGradient
     x1="0"
     y1="0"
     x2="1"
     y2="0"
     id="linearGradient630"
     gradientUnits="userSpaceOnUse"
     gradientTransform="matrix(23.270172,33.233261,33.233261,-23.270172,221.31689,244.63379)"
     spreadMethod="pad">
    <stop
       style="stop-color:#bf331c"
       offset="0"
       id="stop1" />
    <stop
       style="stop-color:#d3641c"
       offset="0.39999399"
       id="stop2" />
    <stop
       style="stop-color:#f6b91d"
       offset="0.5"
       id="stop3" />
    <stop
       style="stop-color:#d3641c"
       offset="0.69999701"
       id="stop4" />
    <stop
       style="stop-color:#bf331c"
       offset="1"
       id="stop5" />
  </linearGradient>
  <linearGradient
     x1="0"
     y1="0"
     x2="1"
     y2="0"
     id="linearGradient2997"
     xlink:href="#linearGradient630"
     gradientUnits="userSpaceOnUse"
     gradientTransform="matrix(23.270172,33.233261,33.233261,-23.270172,221.31689,244.63379)"
     spreadMethod="pad" />
  <linearGradient
     x1="0"
     y1="0"
     x2="1"
     y2="0"
     id="linearGradient3000"
     xlink:href="#linearGradient630"
     gradientUnits="userSpaceOnUse"
     gradientTransform="matrix(316.78804,-452.42035,452.42035,316.78804,141.34727,476.24326)"
     spreadMethod="pad" />
  <path
     d="M 299.97305,544.59368 258.27495,429.77758 15.315166,472.06105 137.08775,392.2316 121.55477,389.46807 V 222.44427 L 101.9922,157.98444 0,212.0708 79.979199,43.0186 H 192.29041 L 193.08,45.56432 299.97305,0 406.90694,45.56432 407.70959,43.0186 H 520.0208 L 600,212.0708 498.0078,157.98444 478.43162,222.44427 v 167.0238 l -15.51937,2.76353 121.77258,79.82945 -242.9734,-42.28347 -41.73893,114.8161 z"
     style="fill:#ffffff"
     id="path5" />
  <path
     d="M 299.97305,528.63868 261.84169,423.66513 40.309516,462.16405 151.54527,389.30471 127.041,384.89394 V 221.58663 L 105.23221,150.0614 11.911796,199.62808 83.382569,48.49122 H 188.24721 l 1.32051,4.46522 110.40533,-47.00735 110.44616,47.00735 1.33412,-4.46522 h 104.86465 l 71.47077,151.13686 -93.33402,-49.56668 -21.79519,71.52523 v 163.30731 l -24.46342,4.41077 111.19491,72.85934 -221.49133,-38.49892 z"
     id="path6" />
  <path
     d="m 206.05364,58.22486 53.86855,23.1293 v 201.7654 L 243.01424,270.77213 179.84769,59.76318 H 90.502419 l -53.922997,113.97206 75.513978,-40.05086 26.16511,86.25501 v 155.60209 l 43.12751,7.65077 -89.345278,58.55158 177.138608,-30.79369 30.7937,84.66224 30.83453,-84.66224 177.08415,30.79369 -89.2772,-58.55158 43.12751,-7.65077 V 219.93939 l 26.15149,-86.25501 75.45952,40.05086 -53.86854,-113.97206 h -89.33166 l -63.18016,211.00895 -16.9624,12.34743 V 81.35416 l 53.923,-23.1293 -93.96024,-40.03725 z"
     style="fill:url(#linearGradient3000)"
     id="path7" />
</svg>
